X:2674
T:Polonäs efter Pehr Andersson
S:efter Pehr Andersson
B:Pehr Anderssons notbok, nr 58
B:http://www.smus.se/earkiv/fmk/browselarge.php?lang=sw&katalogid=Ma+1&bildnr=00021
O:Måstorp, Närke
R:Slängpolska
Z:Nils L
M:3/4
L:1/16
K:D
d2f2 e2g2 f2a2 | A2Bc d2(BG) F2ED | f2d2 g2b2 a2g2 | f2ga e8 ::
a2c2 E2a2 a2gf | g2B2 D2g2 g2fe | f2d2 D2f2 f2ed | efed cdcB A4 |
a2c2 E2a2 a2gf | g2B2 D2g2 g2fe | f2(ed) c2de A2Bc | d12 :|
(:musicend:)
(:music:)
